; HEADER_BLOCK_START
; generated by OrcaSlicer 1.9.0 on 2024-02-06 at 14:44:04
; total layer number: 290
; filament_density: 1.24
; filament_diameter: 1.75
; max_z_height: 58.00
; HEADER_BLOCK_END

; THUMBNAIL_BLOCK_START

;
; THUMBNAIL_BLOCK_END

; external perimeters extrusion width = 0.40mm
; perimeters extrusion width = 0.45mm
; infill extrusion width = 0.45mm
; solid infill extrusion width = 0.40mm
; top infill extrusion width = 0.40mm
; first layer extrusion width = 0.50mm

; EXECUTABLE_BLOCK_START
M73 P0 R171
M201 X500 Y500 Z500 E5000
M203 X500 Y500 Z10 E60
M204 P500 R1000 T500
M205 X8.00 Y8.00 Z0.40 E5.00 ; sets the jerk limits, mm/sec
;TYPE:Custom
G90 ; use absolute coordinates
M83 ; extruder relative mode
M140 S60 ; set final bed temp
M104 S150 ; set temporary nozzle temp to prevent oozing during homing
G4 S10 ; allow partial nozzle warmup
G28 ; home all axis
G1 Z50 F240
G1 X2 Y10 F3000
M104 S220 ; set final nozzle temp
M190 S60 ; wait for bed temp to stabilize
M109 S220 ; wait for nozzle temp to stabilize
G1 Z0.28 F240
G92 E0
G1 Y140 E10 F1500 ; prime the nozzle
M73 P0 R170
G1 X2.3 F5000
G92 E0
G1 Y10 E10 F1200 ; prime the nozzle
G92 E0
G90
G21
M83 ; use relative distances for extrusion
; filament start gcode
M106 S0
;LAYER_CHANGE
;Z:0.2
;HEIGHT:0.2
;BEFORE_LAYER_CHANGE
;0.2
G92 E0

G1 E-5 F3600
;_SET_FAN_SPEED_CHANGING_LAYER
M204 S500
G1 Z.4 F9000
G1 X89.935 Y90.669
G1 Z.4
G1 Z.2
G1 E5 F2400
;TYPE:Skirt
;WIDTH:0.5
G1 F3000
G1 X90.985 Y89.762 E.05169
G1 X92 Y89.543 E.03866
G1 X128 Y89.543 E1.34086
G1 X129.331 Y89.935 E.05169
G1 X130.238 Y90.985 E.05169
G1 X130.457 Y92 E.03866
G1 X130.457 Y128 E1.34086
G1 X130.065 Y129.331 E.05169
G1 X129.015 Y130.238 E.05169
G1 X128 Y130.457 E.03866
G1 X92 Y130.457 E1.34086
G1 X90.669 Y130.065 E.05169
G1 X89.762 Y129.015 E.05169
G1 X89.543 Y128 E.03866
G1 X89.543 Y92 E1.34086
G1 X89.923 Y90.707 E.0502
; printing object Smooth Crift-Duup (1).stl id:0 copy 0
G1 E-3.8 F3600
;WIPE_START
G1 F3000
G1 X90.671 Y90.042 E-1.2
;WIPE_END
G1 Z.6 F9000
G1 X126.836 Y126.836 Z.6
G1 Z.2
G1 E5 F2400
;TYPE:Inner wall
;WIDTH:0.499999
G1 F900
G1 X93.164 Y126.836 E1.25414
G1 X93.164 Y93.164 E1.25414
G1 X126.836 Y93.164 E1.25414
G1 X126.836 Y110 E.62707
G1 X126.836 Y126.796 E.62558
G1 X127.293 Y127.293 F9000
G1 F900
G1 X92.707 Y127.293 E1.28819
G1 X92.707 Y92.707 E1.28819
G1 X127.293 Y92.707 E1.28819
G1 X127.293 Y110 E.64409
G1 X127.293 Y127.253 E.6426
G1 X127.75 Y127.75 F9000
;TYPE:Outer wall
G1 F900
G1 X92.25 Y127.75 E1.32224
G1 X92.25 Y92.25 E1.32224
G1 X127.75 Y92.25 E1.32224
G1 X127.75 Y110 E.66112
G1 X127.75 Y127.71 E.65963
G1 E-3.5 F3600
;WIPE_START
G1 F900
G1 X126.75 Y127.711 E-1.5
;WIPE_END
G1 Z.6 F9000
G1 X126.69 Y94.238 Z.6
G1 Z.2
G1 E5 F2400
;TYPE:Bottom surface
;WIDTH:0.501851
G1 F1200
G1 X125.967 Y93.516 E.0382
G1 X125.318 Y93.516 E.02427
G1 X126.484 Y94.682 E.06164
G1 X126.484 Y95.331 E.02427
G1 X124.669 Y93.516 E.09597
G1 X124.02 Y93.516 E.02427
G1 X126.484 Y95.98 E.13029
G1 X126.484 Y96.629 E.02427
G1 X123.371 Y93.516 E.16462
G1 X122.722 Y93.516 E.02427
G1 X126.484 Y97.278 E.19894
G1 X126.484 Y97.927 E.02427
G1 X122.073 Y93.516 E.23327
G1 X121.424 Y93.516 E.02427
G1 X126.484 Y98.576 E.2676
G1 X126.484 Y99.225 E.02427
G1 X120.775 Y93.516 E.30192
G1 X120.126 Y93.516 E.02427
G1 X126.484 Y99.874 E.33625
G1 X126.484 Y100.523 E.02427
G1 X119.477 Y93.516 E.37057
G1 X118.828 Y93.516 E.02427
G1 X126.484 Y101.172 E.4049
G1 X126.484 Y101.821 E.02427
G1 X118.179 Y93.516 E.43922
G1 X117.53 Y93.516 E.02427
G1 X126.484 Y102.47 E.47355
G1 X126.484 Y103.119 E.02427
G1 X116.881 Y93.516 E.50787
G1 X116.232 Y93.516 E.02427
G1 X126.484 Y103.768 E.5422
G1 X126.484 Y104.417 E.02427
M73 P0 R169
G1 X115.583 Y93.516 E.57652
G1 X114.934 Y93.516 E.02427
G1 X126.484 Y105.066 E.61085
G1 X126.484 Y105.715 E.02427
G1 X114.285 Y93.516 E.64517
G1 X113.636 Y93.516 E.02427
G1 X126.484 Y106.364 E.6795
G1 X126.484 Y107.013 E.02427
G1 X112.987 Y93.516 E.71382
G1 X112.338 Y93.516 E.02427
G1 X126.484 Y107.662 E.74815
G1 X126.484 Y108.311 E.02427
G1 X111.689 Y93.516 E.78248
G1 X111.04 Y93.516 E.02427
G1 X126.484 Y108.96 E.8168
G1 X126.484 Y109.609 E.02427
G1 X110.391 Y93.516 E.85113
G1 X109.742 Y93.516 E.02427
G1 X126.484 Y110.258 E.88545
G1 X126.484 Y110.907 E.02427
G1 X109.093 Y93.516 E.91978
G1 X108.444 Y93.516 E.02427
G1 X126.484 Y111.556 E.9541
G1 X126.484 Y112.205 E.02427
G1 X107.795 Y93.516 E.98843
G1 X107.146 Y93.516 E.02427
G1 X126.484 Y112.854 E1.02275
G1 X126.484 Y113.503 E.02427
G1 X106.497 Y93.516 E1.05708
G1 X105.848 Y93.516 E.02427
G1 X126.484 Y114.152 E1.0914
G1 X126.484 Y114.801 E.02427
G1 X105.199 Y93.516 E1.12573
G1 X104.549 Y93.516 E.02427
G1 X126.484 Y115.451 E1.16005
G1 X126.484 Y116.1 E.02427
G1 X103.9 Y93.516 E1.19438
G1 X103.251 Y93.516 E.02427
G1 X126.484 Y116.749 E1.2287
G1 X126.484 Y117.398 E.02427
M73 P1 R169
G1 X102.602 Y93.516 E1.26303
G1 X101.953 Y93.516 E.02427
G1 X126.484 Y118.047 E1.29736
G1 X126.484 Y118.696 E.02427
G1 X101.304 Y93.516 E1.33168
G1 X100.655 Y93.516 E.02427
G1 X126.484 Y119.345 E1.36601
G1 X126.484 Y119.994 E.02427
G1 X100.006 Y93.516 E1.40033
G1 X99.357 Y93.516 E.02427
G1 X126.484 Y120.643 E1.43466
G1 X126.484 Y121.292 E.02427
G1 X98.708 Y93.516 E1.46898
G1 X98.059 Y93.516 E.02427
G1 X126.484 Y121.941 E1.50331
G1 X126.484 Y122.59 E.02427
G1 X97.41 Y93.516 E1.53763
G1 X96.761 Y93.516 E.02427
G1 X126.484 Y123.239 E1.57196
G1 X126.484 Y123.888 E.02427
G1 X96.112 Y93.516 E1.60628
G1 X95.463 Y93.516 E.02427
G1 X126.484 Y124.537 E1.64061
G1 X126.484 Y125.186 E.02427
G1 X94.814 Y93.516 E1.67493
G1 X94.165 Y93.516 E.02427
G1 X126.484 Y125.835 E1.70926
G1 X126.484 Y126.484 E.02427
G1 X93.516 Y93.516 E1.74358
G1 X93.516 Y94.165 E.02427
G1 X125.835 Y126.484 E1.70925
G1 X125.186 Y126.484 E.02427
G1 X93.516 Y94.814 E1.67493
G1 X93.516 Y95.463 E.02427
M73 P1 R168
G1 X124.537 Y126.484 E1.6406
G1 X123.888 Y126.484 E.02427
G1 X93.516 Y96.112 E1.60628
G1 X93.516 Y96.761 E.02427
G1 X123.239 Y126.484 E1.57195
G1 X122.59 Y126.484 E.02427
G1 X93.516 Y97.41 E1.53763
G1 X93.516 Y98.059 E.02427
G1 X121.941 Y126.484 E1.5033
G1 X121.292 Y126.484 E.02427
G1 X93.516 Y98.708 E1.46898
G1 X93.516 Y99.357 E.02427
G1 X120.643 Y126.484 E1.43465
G1 X119.994 Y126.484 E.02427
G1 X93.516 Y100.006 E1.40032
G1 X93.516 Y100.655 E.02427
G1 X119.345 Y126.484 E1.366
G1 X118.696 Y126.484 E.02427
G1 X93.516 Y101.304 E1.33167
G1 X93.516 Y101.954 E.02427
G1 X118.046 Y126.484 E1.29735
G1 X117.397 Y126.484 E.02427
G1 X93.516 Y102.603 E1.26302
G1 X93.516 Y103.252 E.02427
G1 X116.748 Y126.484 E1.2287
G1 X116.099 Y126.484 E.02427
G1 X93.516 Y103.901 E1.19437
G1 X93.516 Y104.55 E.02427
G1 X115.45 Y126.484 E1.16005
G1 X114.801 Y126.484 E.02427
G1 X93.516 Y105.199 E1.12572
G1 X93.516 Y105.848 E.02427
G1 X114.152 Y126.484 E1.0914
G1 X113.503 Y126.484 E.02427
G1 X93.516 Y106.497 E1.05707
G1 X93.516 Y107.146 E.02427
G1 X112.854 Y126.484 E1.02275
G1 X112.205 Y126.484 E.02427
G1 X93.516 Y107.795 E.98842
G1 X93.516 Y108.444 E.02427
G1 X111.556 Y126.484 E.9541
G1 X110.907 Y126.484 E.02427
G1 X93.516 Y109.093 E.91977
G1 X93.516 Y109.742 E.02427
G1 X110.258 Y126.484 E.88544
G1 X109.609 Y126.484 E.02427
G1 X93.516 Y110.391 E.85112
G1 X93.516 Y111.04 E.02427
G1 X108.96 Y126.484 E.81679
G1 X108.311 Y126.484 E.02427
G1 X93.516 Y111.689 E.78247
G1 X93.516 Y112.338 E.02427
G1 X107.662 Y126.484 E.74814
G1 X107.013 Y126.484 E.02427
G1 X93.516 Y112.987 E.71382
G1 X93.516 Y113.636 E.02427
G1 X106.364 Y126.484 E.67949
G1 X105.715 Y126.484 E.02427
G1 X93.516 Y114.285 E.64517
G1 X93.516 Y114.934 E.02427
G1 X105.066 Y126.484 E.61084
G1 X104.417 Y126.484 E.02427
G1 X93.516 Y115.583 E.57652
G1 X93.516 Y116.232 E.02427
G1 X103.768 Y126.484 E.54219
G1 X103.119 Y126.484 E.02427
G1 X93.516 Y116.881 E.50787
G1 X93.516 Y117.53 E.02427
G1 X102.47 Y126.484 E.47354
G1 X101.821 Y126.484 E.02427
G1 X93.516 Y118.179 E.43922
G1 X93.516 Y118.828 E.02427
G1 X101.172 Y126.484 E.40489
G1 X100.523 Y126.484 E.02427
G1 X93.516 Y119.477 E.37056
G1 X93.516 Y120.126 E.02427
G1 X99.874 Y126.484 E.33624
G1 X99.225 Y126.484 E.02427
G1 X93.516 Y120.775 E.30191
G1 X93.516 Y121.424 E.02427
G1 X98.576 Y126.484 E.26759
G1 X97.927 Y126.484 E.02427
G1 X93.516 Y122.073 E.23326
G1 X93.516 Y122.722 E.02427
G1 X97.278 Y126.484 E.19894
G1 X96.629 Y126.484 E.02427
G1 X93.516 Y123.371 E.16461
G1 X93.516 Y124.02 E.02427
G1 X95.98 Y126.484 E.13029
G1 X95.331 Y126.484 E.02427
G1 X93.516 Y124.669 E.09596
G1 X93.516 Y125.318 E.02427
G1 X94.682 Y126.484 E.06164
G1 X94.033 Y126.484 E.02427
G1 X93.31 Y125.762 E.03819
; stop printing object Smooth Crift-Duup (1).stl id:0 copy 0
M106 S255
;LAYER_CHANGE
;Z:0.4
;HEIGHT:0.2
;BEFORE_LAYER_CHANGE
;0.4
G92 E0

G1 E-3.5 F3600
;WIPE_START
G1 F1200
G1 X94.018 Y126.469 E-1.5
;WIPE_END
;_SET_FAN_SPEED_CHANGING_LAYER
; printing object Smooth Crift-Duup (1).stl id:0 copy 0
M204 S700
G1 Z.6 F9000
G1 X127.011 Y127.011 Z.6
G1 Z.4
G1 E5 F2400
M204 S500
;TYPE:Inner wall
;WIDTH:0.449999
G1 X92.989 Y127.011 E1.12856
G1 X92.989 Y92.989 E1.12856
G1 X127.011 Y92.989 E1.12856
M73 P1 R167
G1 X127.011 Y110 E.56428
G1 X127.011 Y126.971 E.56295
M204 S700
G1 X127.418 Y127.418 F9000
M204 S500
G1 F2400
G1 X92.582 Y127.418 E1.15557
G1 X92.582 Y92.582 E1.15557
G1 X127.418 Y92.582 E1.15557
G1 X127.418 Y110 E.57778
G1 X127.418 Y127.378 E.57646
M204 S700
G1 X127.8 Y127.8 F9000
M204 S500
;TYPE:Outer wall
;WIDTH:0.399999
G1 F1500
G1 X92.2 Y127.8 E1.03587
G1 X92.2 Y92.2 E1.03587
M73 P2 R167
G1 X127.8 Y92.2 E1.03587
G1 X127.8 Y110 E.51793
G1 X127.8 Y127.76 E.51677
M204 S700
G1 X126.68 Y126.622 F9000
M204 S500
;TYPE:Internal solid infill
;WIDTH:0.38292
G1 F2400
G1 X126.617 Y126.659 E.00204
G1 X126.682 Y126.694 E.00204
M204 S700
G1 X126.023 Y126.883 F9000
M204 S500
;WIDTH:0.400544
G1 F2400
G1 X126.722 Y126.184 E.02881
G1 X126.722 Y125.678 E.01474
G1 X125.678 Y126.722 E.04303
G1 X125.172 Y126.722 E.01474
G1 X126.722 Y125.172 E.06388
G1 X126.722 Y124.667 E.01474
G1 X124.667 Y126.722 E.08472
G1 X124.161 Y126.722 E.01474
G1 X126.722 Y124.161 E.10557
G1 X126.722 Y123.655 E.01474
G1 X123.655 Y126.722 E.12641
G1 X123.149 Y126.722 E.01474
G1 X126.722 Y123.149 E.14725
G1 X126.722 Y122.644 E.01474
G1 X122.644 Y126.722 E.1681
G1 X122.138 Y126.722 E.01474
G1 X126.722 Y122.138 E.18894
G1 X126.722 Y121.632 E.01474
G1 X121.632 Y126.722 E.20978
G1 X121.126 Y126.722 E.01474
G1 X126.722 Y121.126 E.23063
G1 X126.722 Y120.621 E.01474
G1 X120.621 Y126.722 E.25147
G1 X120.115 Y126.722 E.01474
G1 X126.722 Y120.115 E.27231
G1 X126.722 Y119.609 E.01474
G1 X119.609 Y126.722 E.29316
G1 X119.103 Y126.722 E.01474
G1 X126.722 Y119.103 E.314
G1 X126.722 Y118.598 E.01474
G1 X118.598 Y126.722 E.33485
G1 X118.092 Y126.722 E.01474
G1 X126.722 Y118.092 E.35569
G1 X126.722 Y117.586 E.01474
G1 X117.586 Y126.722 E.37653
G1 X117.08 Y126.722 E.01474
G1 X126.722 Y117.08 E.39738
G1 X126.722 Y116.575 E.01474
G1 X116.575 Y126.722 E.41822
G1 X116.069 Y126.722 E.01474
G1 X126.722 Y116.069 E.43906
G1 X126.722 Y115.563 E.01474
G1 X115.563 Y126.722 E.45991
G1 X115.057 Y126.722 E.01474
G1 X126.722 Y115.057 E.48075
G1 X126.722 Y114.552 E.01474
G1 X114.552 Y126.722 E.50159
G1 X114.046 Y126.722 E.01474
G1 X126.722 Y114.046 E.52244
G1 X126.722 Y113.54 E.01474
G1 X113.54 Y126.722 E.54328
G1 X113.034 Y126.722 E.01474
G1 X126.722 Y113.034 E.56413
G1 X126.722 Y112.529 E.01474
G1 X112.529 Y126.722 E.58497
G1 X112.023 Y126.722 E.01474
G1 X126.722 Y112.023 E.60581
G1 X126.722 Y111.517 E.01474
G1 X111.517 Y126.722 E.62666
G1 X111.011 Y126.722 E.01474
G1 X126.722 Y111.011 E.6475
G1 X126.722 Y110.505 E.01474
G1 X110.505 Y126.722 E.66834
G1 X110 Y126.722 E.01474
G1 X126.722 Y110 E.68919
G1 X126.722 Y109.494 E.01474
G1 X109.494 Y126.722 E.71003
G1 X108.988 Y126.722 E.01474
G1 X126.722 Y108.988 E.73087
G1 X126.722 Y108.482 E.01474
G1 X108.482 Y126.722 E.75172
G1 X107.977 Y126.722 E.01474
G1 X126.722 Y107.977 E.77256
G1 X126.722 Y107.471 E.01474
G1 X107.471 Y126.722 E.79341
G1 X106.965 Y126.722 E.01474
G1 X126.722 Y106.965 E.81425
G1 X126.722 Y106.459 E.01474
G1 X106.459 Y126.722 E.83509
G1 X105.954 Y126.722 E.01474
G1 X126.722 Y105.954 E.85594
G1 X126.722 Y105.448 E.01474
G1 X105.448 Y126.722 E.87678
G1 X104.942 Y126.722 E.01474
G1 X126.722 Y104.942 E.89762
G1 X126.722 Y104.436 E.01474
G1 X104.436 Y126.722 E.91847
G1 X103.931 Y126.722 E.01474
G1 X126.722 Y103.931 E.93931
G1 X126.722 Y103.425 E.01474
G1 X103.425 Y126.722 E.96015
G1 X102.919 Y126.722 E.01474
G1 X126.722 Y102.919 E.981
G1 X126.722 Y102.413 E.01474
G1 X102.413 Y126.722 E1.00184
G1 X101.908 Y126.722 E.01474
G1 X126.722 Y101.908 E1.02269
G1 X126.722 Y101.402 E.01474
G1 X101.402 Y126.722 E1.04353
G1 X100.896 Y126.722 E.01474
G1 X126.722 Y100.896 E1.06437
G1 X126.722 Y100.39 E.01474
G1 X100.39 Y126.722 E1.08522
G1 X99.885 Y126.722 E.01474
G1 X126.722 Y99.885 E1.10606
G1 X126.722 Y99.379 E.01474
G1 X99.379 Y126.722 E1.1269
G1 X98.873 Y126.722 E.01474
G1 X126.722 Y98.873 E1.14775
G1 X126.722 Y98.367 E.01474
G1 X98.367 Y126.722 E1.16859
G1 X97.862 Y126.722 E.01474
G1 X126.722 Y97.862 E1.18943
G1 X126.722 Y97.356 E.01474
G1 X97.356 Y126.722 E1.21028
G1 X96.85 Y126.722 E.01474
G1 X126.722 Y96.85 E1.23112
G1 X126.722 Y96.344 E.01474
G1 X96.344 Y126.722 E1.25197
G1 X95.839 Y126.722 E.01474
G1 X126.722 Y95.839 E1.27281
G1 X126.722 Y95.333 E.01474
G1 X95.333 Y126.722 E1.29365
G1 X94.827 Y126.722 E.01474
G1 X126.722 Y94.827 E1.3145
G1 X126.722 Y94.321 E.01474
G1 X94.321 Y126.722 E1.33534
G1 X93.816 Y126.722 E.01474
G1 X126.722 Y93.816 E1.35618
G1 X126.722 Y93.31 E.01474
G1 X93.31 Y126.722 E1.37703
G1 X93.278 Y126.722 E.00094
G1 X93.278 Y126.249 E.0138
G1 X126.249 Y93.278 E1.35883
G1 X125.743 Y93.278 E.01474
G1 X93.278 Y125.743 E1.33799
G1 X93.278 Y125.237 E.01474
G1 X125.237 Y93.278 E1.31715
G1 X124.732 Y93.278 E.01474
M73 P2 R166
G1 X93.278 Y124.732 E1.2963
G1 X93.278 Y124.226 E.01474
G1 X124.226 Y93.278 E1.27546
G1 X123.72 Y93.278 E.01474
G1 X93.278 Y123.72 E1.25462
G1 X93.278 Y123.214 E.01474
G1 X123.214 Y93.278 E1.23377
G1 X122.708 Y93.278 E.01474
G1 X93.278 Y122.708 E1.21293
G1 X93.278 Y122.203 E.01474
G1 X122.203 Y93.278 E1.19208
G1 X121.697 Y93.278 E.01474
G1 X93.278 Y121.697 E1.17124
G1 X93.278 Y121.191 E.01474
G1 X121.191 Y93.278 E1.1504
G1 X120.685 Y93.278 E.01474
G1 X93.278 Y120.685 E1.12955
G1 X93.278 Y120.18 E.01474
G1 X120.18 Y93.278 E1.10871
G1 X119.674 Y93.278 E.01474
G1 X93.278 Y119.674 E1.08787
G1 X93.278 Y119.168 E.01474
G1 X119.168 Y93.278 E1.06702
G1 X118.662 Y93.278 E.01474
G1 X93.278 Y118.662 E1.04618
G1 X93.278 Y118.157 E.01474
G1 X118.157 Y93.278 E1.02534
G1 X117.651 Y93.278 E.01474
G1 X93.278 Y117.651 E1.00449
G1 X93.278 Y117.145 E.01474
G1 X117.145 Y93.278 E.98365
G1 X116.639 Y93.278 E.01474
G1 X93.278 Y116.639 E.9628
G1 X93.278 Y116.134 E.01474
G1 X116.134 Y93.278 E.94196
G1 X115.628 Y93.278 E.01474
G1 X93.278 Y115.628 E.92112
G1 X93.278 Y115.122 E.01474
G1 X115.122 Y93.278 E.90027
G1 X114.616 Y93.278 E.01474
G1 X93.278 Y114.616 E.87943
G1 X93.278 Y114.111 E.01474
G1 X114.111 Y93.278 E.85859
G1 X113.605 Y93.278 E.01474
G1 X93.278 Y113.605 E.83774
G1 X93.278 Y113.099 E.01474
G1 X113.099 Y93.278 E.8169
G1 X112.593 Y93.278 E.01474
G1 X93.278 Y112.593 E.79606
G1 X93.278 Y112.088 E.01474
G1 X112.088 Y93.278 E.77521
G1 X111.582 Y93.278 E.01474
G1 X93.278 Y111.582 E.75437
G1 X93.278 Y111.076 E.01474
G1 X111.076 Y93.278 E.73352
G1 X110.57 Y93.278 E.01474
G1 X93.278 Y110.57 E.71268
G1 X93.278 Y110.065 E.01474
G1 X110.065 Y93.278 E.69184
G1 X109.559 Y93.278 E.01474
G1 X93.278 Y109.559 E.67099
G1 X93.278 Y109.053 E.01474
G1 X109.053 Y93.278 E.65015
G1 X108.547 Y93.278 E.01474
G1 X93.278 Y108.547 E.62931
G1 X93.278 Y108.042 E.01474
G1 X108.042 Y93.278 E.60846
G1 X107.536 Y93.278 E.01474
G1 X93.278 Y107.536 E.58762
G1 X93.278 Y107.03 E.01474
G1 X107.03 Y93.278 E.56678
G1 X106.524 Y93.278 E.01474
G1 X93.278 Y106.524 E.54593
G1 X93.278 Y106.019 E.01474
G1 X106.019 Y93.278 E.52509
G1 X105.513 Y93.278 E.01474
G1 X93.278 Y105.513 E.50424
G1 X93.278 Y105.007 E.01474
G1 X105.007 Y93.278 E.4834
G1 X104.501 Y93.278 E.01474
G1 X93.278 Y104.501 E.46256
