; HEADER_BLOCK_START
; generated by OrcaSlicer 1.9.0 on 2024-02-06 at 14:42:58
; total layer number: 40
; filament_density: 1.24
; filament_diameter: 1.75
; max_z_height: 8.00
; HEADER_BLOCK_END

; THUMBNAIL_BLOCK_START

;
; THUMBNAIL_BLOCK_END

; external perimeters extrusion width = 0.40mm
; perimeters extrusion width = 0.45mm
; infill extrusion width = 0.45mm
; solid infill extrusion width = 0.40mm
; top infill extrusion width = 0.40mm
; first layer extrusion width = 0.50mm

; EXECUTABLE_BLOCK_START
M73 P0 R25
M201 X500 Y500 Z500 E5000
M203 X500 Y500 Z10 E60
M204 P500 R1000 T500
M205 X8.00 Y8.00 Z0.40 E5.00 ; sets the jerk limits, mm/sec
;TYPE:Custom
G90 ; use absolute coordinates
M83 ; extruder relative mode
M140 S60 ; set final bed temp
M104 S150 ; set temporary nozzle temp to prevent oozing during homing
G4 S10 ; allow partial nozzle warmup
G28 ; home all axis
G1 Z50 F240
G1 X2 Y10 F3000
M104 S220 ; set final nozzle temp
M190 S60 ; wait for bed temp to stabilize
M109 S220 ; wait for nozzle temp to stabilize
G1 Z0.28 F240
G92 E0
G1 Y140 E10 F1500 ; prime the nozzle
M73 P1 R25
G1 X2.3 F5000
G92 E0
G1 Y10 E10 F1200 ; prime the nozzle
G92 E0
G90
G21
M83 ; use relative distances for extrusion
; filament start gcode
M106 S0
;LAYER_CHANGE
;Z:0.2
;HEIGHT:0.2
;BEFORE_LAYER_CHANGE
;0.2
G92 E0

G1 E-5 F3600
;_SET_FAN_SPEED_CHANGING_LAYER
M204 S500
M73 P2 R25
G1 Z.4 F9000
G1 X88.935 Y89.669
G1 Z.4
M73 P2 R24
G1 Z.2
G1 E5 F2400
;TYPE:Skirt
;WIDTH:0.5
G1 F3000
G1 X89.985 Y88.762 E.05169
G1 X91 Y88.543 E.03866
G1 X129 Y88.543 E1.41536
G1 X130.331 Y88.935 E.05169
G1 X131.238 Y89.985 E.05169
G1 X131.457 Y91 E.03866
G1 X131.457 Y129 E1.41536
G1 X131.065 Y130.331 E.05169
G1 X130.015 Y131.238 E.05169
G1 X129 Y131.457 E.03866
G1 X91 Y131.457 E1.41536
G1 X89.669 Y131.065 E.05169
G1 X88.762 Y130.015 E.05169
G1 X88.543 Y129 E.03866
G1 X88.543 Y91 E1.41536
G1 X88.923 Y89.707 E.0502
; printing object Smooth Crift-Duup.stl id:2314314542592 copy 0
G1 E-3.8 F3600
;WIPE_START
G1 F3000
G1 X89.671 Y89.042 E-1.2
;WIPE_END
G1 Z.6 F9000
G1 X92.164 Y92.164 Z.6
G1 Z.2
G1 E5 F2400
;TYPE:Inner wall
;WIDTH:0.499999
G1 F900
G1 X127.836 Y92.164 E1.32863
G1 X127.836 Y110 E.66432
G1 X127.836 Y127.836 E.66432
M73 P3 R24
G1 X92.164 Y127.836 E1.32863
G1 X92.164 Y92.204 E1.32714
G1 X91.707 Y91.707 F9000
G1 F900
G1 X128.293 Y91.707 E1.36268
G1 X128.293 Y110 E.68134
G1 X128.293 Y128.293 E.68134
G1 X91.707 Y128.293 E1.36268
G1 X91.707 Y91.747 E1.36119
G1 X91.25 Y91.25 F9000
;TYPE:Outer wall
M73 P4 R24
G1 F900
G1 X128.75 Y91.25 E1.39673
G1 X128.75 Y110 E.69837
G1 X128.75 Y128.75 E.69837
G1 X91.25 Y128.75 E1.39673
G1 X91.25 Y91.29 E1.39524
G1 E-3.5 F3600
;WIPE_START
G1 F900
G1 X92.25 Y91.289 E-1.5
;WIPE_END
G1 Z.6 F9000
G1 X127.69 Y93.24 Z.6
G1 Z.2
G1 E5 F2400
;TYPE:Bottom surface
;WIDTH:0.502537
G1 F1200
G1 X126.966 Y92.516 E.03833
G1 X126.316 Y92.516 E.02434
G1 X127.484 Y93.684 E.06186
G1 X127.484 Y94.334 E.02434
G1 X125.666 Y92.516 E.09629
G1 X125.016 Y92.516 E.02434
G1 X127.484 Y94.984 E.13072
G1 X127.484 Y95.634 E.02434
G1 X124.366 Y92.516 E.16515
G1 X123.716 Y92.516 E.02434
G1 X127.484 Y96.284 E.19958
G1 X127.484 Y96.934 E.02434
G1 X123.066 Y92.516 E.234
G1 X122.416 Y92.516 E.02434
G1 X127.484 Y97.584 E.26843
G1 X127.484 Y98.234 E.02434
G1 X121.766 Y92.516 E.30286
G1 X121.116 Y92.516 E.02434
G1 X127.484 Y98.884 E.33729
G1 X127.484 Y99.534 E.02434
G1 X120.466 Y92.516 E.37172
G1 X119.816 Y92.516 E.02434
G1 X127.484 Y100.184 E.40614
G1 X127.484 Y100.834 E.02434
M73 P5 R24
G1 X119.166 Y92.516 E.44057
G1 X118.516 Y92.516 E.02434
G1 X127.484 Y101.484 E.475
G1 X127.484 Y102.134 E.02434
G1 X117.866 Y92.516 E.50943
G1 X117.216 Y92.516 E.02434
G1 X127.484 Y102.784 E.54386
G1 X127.484 Y103.434 E.02434
G1 X116.566 Y92.516 E.57828
G1 X115.916 Y92.516 E.02434
G1 X127.484 Y104.084 E.61271
G1 X127.484 Y104.734 E.02434
G1 X115.266 Y92.516 E.64714
G1 X114.616 Y92.516 E.02434
G1 X127.484 Y105.384 E.68157
G1 X127.484 Y106.034 E.02434
G1 X113.966 Y92.516 E.716
G1 X113.316 Y92.516 E.02434
G1 X127.484 Y106.684 E.75042
G1 X127.484 Y107.334 E.02434
G1 X112.666 Y92.516 E.78485
G1 X112.016 Y92.516 E.02434
G1 X127.484 Y107.984 E.81928
G1 X127.484 Y108.634 E.02434
G1 X111.366 Y92.516 E.85371
G1 X110.716 Y92.516 E.02434
G1 X127.484 Y109.284 E.88814
G1 X127.484 Y109.934 E.02434
G1 X110.066 Y92.516 E.92256
G1 X109.416 Y92.516 E.02434
G1 X127.484 Y110.584 E.95699
G1 X127.484 Y111.234 E.02434
M73 P6 R24
G1 X108.766 Y92.516 E.99142
G1 X108.116 Y92.516 E.02434
G1 X127.484 Y111.884 E1.02585
G1 X127.484 Y112.534 E.02434
G1 X107.466 Y92.516 E1.06028
G1 X106.816 Y92.516 E.02434
M73 P6 R23
G1 X127.484 Y113.184 E1.0947
G1 X127.484 Y113.834 E.02434
G1 X106.166 Y92.516 E1.12913
G1 X105.516 Y92.516 E.02434
G1 X127.484 Y114.484 E1.16356
G1 X127.484 Y115.134 E.02434
G1 X104.866 Y92.516 E1.19799
G1 X104.216 Y92.516 E.02434
G1 X127.484 Y115.784 E1.23242
G1 X127.484 Y116.434 E.02434
G1 X103.566 Y92.516 E1.26685
G1 X102.916 Y92.516 E.02434
G1 X127.484 Y117.084 E1.30127
G1 X127.484 Y117.734 E.02434
M73 P7 R23
G1 X102.266 Y92.516 E1.3357
G1 X101.616 Y92.516 E.02434
G1 X127.484 Y118.384 E1.37013
G1 X127.484 Y119.034 E.02434
G1 X100.966 Y92.516 E1.40456
G1 X100.316 Y92.516 E.02434
G1 X127.484 Y119.684 E1.43899
G1 X127.484 Y120.334 E.02434
G1 X99.666 Y92.516 E1.47341
G1 X99.016 Y92.516 E.02434
G1 X127.484 Y120.984 E1.50784
G1 X127.484 Y121.634 E.02434
G1 X98.366 Y92.516 E1.54227
G1 X97.716 Y92.516 E.02434
G1 X127.484 Y122.284 E1.5767
G1 X127.484 Y122.934 E.02434
M73 P8 R23
G1 X97.066 Y92.516 E1.61113
G1 X96.416 Y92.516 E.02434
G1 X127.484 Y123.584 E1.64555
G1 X127.484 Y124.234 E.02434
G1 X95.766 Y92.516 E1.67998
G1 X95.116 Y92.516 E.02434
G1 X127.484 Y124.884 E1.71441
G1 X127.484 Y125.534 E.02434
G1 X94.466 Y92.516 E1.74884
G1 X93.816 Y92.516 E.02434
G1 X127.484 Y126.184 E1.78327
G1 X127.484 Y126.834 E.02434
M73 P9 R23
G1 X93.166 Y92.516 E1.81769
G1 X92.516 Y92.516 E.02434
G1 X127.484 Y127.484 E1.85212
G1 X126.834 Y127.484 E.02434
G1 X92.516 Y93.166 E1.81769
G1 X92.516 Y93.816 E.02434
G1 X126.184 Y127.484 E1.78326
G1 X125.534 Y127.484 E.02434
G1 X92.516 Y94.466 E1.74884
G1 X92.516 Y95.116 E.02434
G1 X124.884 Y127.484 E1.71441
G1 X124.234 Y127.484 E.02434
G1 X92.516 Y95.766 E1.67998
G1 X92.516 Y96.416 E.02434
M73 P10 R23
G1 X123.584 Y127.484 E1.64555
G1 X122.934 Y127.484 E.02434
M73 P10 R22
G1 X92.516 Y97.066 E1.61112
G1 X92.516 Y97.716 E.02434
G1 X122.284 Y127.484 E1.5767
G1 X121.634 Y127.484 E.02434
G1 X92.516 Y98.366 E1.54227
G1 X92.516 Y99.016 E.02434
G1 X120.984 Y127.484 E1.50784
G1 X120.334 Y127.484 E.02434
G1 X92.516 Y99.666 E1.47341
G1 X92.516 Y100.316 E.02434
G1 X119.684 Y127.484 E1.43898
G1 X119.034 Y127.484 E.02434
M73 P11 R22
G1 X92.516 Y100.966 E1.40456
G1 X92.516 Y101.616 E.02434
G1 X118.384 Y127.484 E1.37013
G1 X117.734 Y127.484 E.02434
G1 X92.516 Y102.266 E1.3357
G1 X92.516 Y102.916 E.02434
G1 X117.084 Y127.484 E1.30127
G1 X116.434 Y127.484 E.02434
G1 X92.516 Y103.566 E1.26684
G1 X92.516 Y104.216 E.02434
G1 X115.784 Y127.484 E1.23242
G1 X115.134 Y127.484 E.02434
G1 X92.516 Y104.866 E1.19799
G1 X92.516 Y105.516 E.02434
G1 X114.484 Y127.484 E1.16356
G1 X113.834 Y127.484 E.02434
M73 P12 R22
G1 X92.516 Y106.166 E1.12913
G1 X92.516 Y106.816 E.02434
G1 X113.184 Y127.484 E1.0947
G1 X112.534 Y127.484 E.02434
G1 X92.516 Y107.466 E1.06028
G1 X92.516 Y108.116 E.02434
G1 X111.884 Y127.484 E1.02585
G1 X111.234 Y127.484 E.02434
G1 X92.516 Y108.766 E.99142
G1 X92.516 Y109.416 E.02434
G1 X110.584 Y127.484 E.95699
G1 X109.934 Y127.484 E.02434
G1 X92.516 Y110.066 E.92256
G1 X92.516 Y110.716 E.02434
G1 X109.284 Y127.484 E.88813
G1 X108.634 Y127.484 E.02434
G1 X92.516 Y111.366 E.85371
G1 X92.516 Y112.016 E.02434
G1 X107.984 Y127.484 E.81928
G1 X107.334 Y127.484 E.02434
G1 X92.516 Y112.666 E.78485
G1 X92.516 Y113.316 E.02434
G1 X106.684 Y127.484 E.75042
G1 X106.034 Y127.484 E.02434
M73 P13 R22
G1 X92.516 Y113.966 E.71599
G1 X92.516 Y114.616 E.02434
G1 X105.384 Y127.484 E.68157
G1 X104.734 Y127.484 E.02434
G1 X92.516 Y115.266 E.64714
G1 X92.516 Y115.916 E.02434
G1 X104.084 Y127.484 E.61271
G1 X103.434 Y127.484 E.02434
G1 X92.516 Y116.566 E.57828
G1 X92.516 Y117.216 E.02434
G1 X102.784 Y127.484 E.54385
G1 X102.134 Y127.484 E.02434
G1 X92.516 Y117.866 E.50943
G1 X92.516 Y118.516 E.02434
G1 X101.484 Y127.484 E.475
G1 X100.834 Y127.484 E.02434
G1 X92.516 Y119.166 E.44057
G1 X92.516 Y119.816 E.02434
G1 X100.184 Y127.484 E.40614
G1 X99.534 Y127.484 E.02434
G1 X92.516 Y120.466 E.37171
G1 X92.516 Y121.116 E.02434
G1 X98.884 Y127.484 E.33729
G1 X98.234 Y127.484 E.02434
G1 X92.516 Y121.766 E.30286
G1 X92.516 Y122.416 E.02434
G1 X97.584 Y127.484 E.26843
G1 X96.934 Y127.484 E.02434
G1 X92.516 Y123.066 E.234
G1 X92.516 Y123.716 E.02434
G1 X96.284 Y127.484 E.19957
G1 X95.634 Y127.484 E.02434
G1 X92.516 Y124.366 E.16515
G1 X92.516 Y125.016 E.02434
G1 X94.984 Y127.484 E.13072
G1 X94.334 Y127.484 E.02434
G1 X92.516 Y125.666 E.09629
G1 X92.516 Y126.316 E.02434
G1 X93.684 Y127.484 E.06186
G1 X93.034 Y127.484 E.02434
G1 X92.31 Y126.76 E.03833
; stop printing object Smooth Crift-Duup.stl id:2314314542592 copy 0
M106 S255
;LAYER_CHANGE
;Z:0.4
;HEIGHT:0.2
;BEFORE_LAYER_CHANGE
;0.4
G92 E0

G1 E-3.5 F3600
;WIPE_START
G1 F1200
G1 X93.018 Y127.467 E-1.5
;WIPE_END
;_SET_FAN_SPEED_CHANGING_LAYER
; printing object Smooth Crift-Duup.stl id:2314314542592 copy 0
M204 S700
G1 Z.6 F9000
G1 X91.989 Y91.989 Z.6
G1 Z.4
G1 E5 F2400
M204 S500
;TYPE:Inner wall
;WIDTH:0.449999
G1 X128.011 Y91.989 E1.1949
G1 X128.011 Y110 E.59745
G1 X128.011 Y128.011 E.59745
G1 X91.989 Y128.011 E1.1949
G1 X91.989 Y92.029 E1.19358
M204 S700
M73 P14 R22
G1 X91.582 Y91.582 F9000
M204 S500
G1 F2400
G1 X128.418 Y91.582 E1.22191
G1 X128.418 Y110 E.61096
M73 P14 R21
G1 X128.418 Y128.418 E.61096
G1 X91.582 Y128.418 E1.22191
G1 X91.582 Y91.622 E1.22058
M204 S700
G1 X91.2 Y91.2 F9000
M204 S500
;TYPE:Outer wall
;WIDTH:0.399999
G1 F1500
G1 X128.8 Y91.2 E1.09406
G1 X128.8 Y110 E.54703
G1 X128.8 Y128.8 E.54703
G1 X91.2 Y128.8 E1.09406
G1 X91.2 Y91.24 E1.0929
M204 S700
G1 X92.381 Y92.323 F9000
M204 S500
;TYPE:Internal solid infill
;WIDTH:0.38292
G1 F2400
G1 X92.317 Y92.36 E.00204
G1 X92.382 Y92.394 E.00204
M204 S700
G1 X127.063 Y127.883 F9000
M204 S500
;WIDTH:0.400512
G1 F2400
G1 X127.722 Y127.224 E.02717
G1 X127.722 Y126.718 E.01474
G1 X126.718 Y127.722 E.04138
G1 X126.212 Y127.722 E.01474
G1 X127.722 Y126.212 E.06222
G1 X127.722 Y125.707 E.01474
G1 X125.707 Y127.722 E.08306
G1 X125.201 Y127.722 E.01474
G1 X127.722 Y125.201 E.1039
G1 X127.722 Y124.695 E.01474
G1 X124.695 Y127.722 E.12474
G1 X124.19 Y127.722 E.01474
G1 X127.722 Y124.19 E.14558
G1 X127.722 Y123.684 E.01474
G1 X123.684 Y127.722 E.16642
G1 X123.178 Y127.722 E.01474
G1 X127.722 Y123.178 E.18726
G1 X127.722 Y122.672 E.01474
G1 X122.672 Y127.722 E.2081
G1 X122.167 Y127.722 E.01474
G1 X127.722 Y122.167 E.22894
G1 X127.722 Y121.661 E.01474
G1 X121.661 Y127.722 E.24978
G1 X121.155 Y127.722 E.01474
G1 X127.722 Y121.155 E.27062
G1 X127.722 Y120.65 E.01474
G1 X120.65 Y127.722 E.29146
G1 X120.144 Y127.722 E.01474
M73 P15 R21
G1 X127.722 Y120.144 E.3123
G1 X127.722 Y119.638 E.01474
G1 X119.638 Y127.722 E.33314
G1 X119.132 Y127.722 E.01474
G1 X127.722 Y119.132 E.35398
G1 X127.722 Y118.627 E.01474
G1 X118.627 Y127.722 E.37482
G1 X118.121 Y127.722 E.01474
G1 X127.722 Y118.121 E.39566
G1 X127.722 Y117.615 E.01474
G1 X117.615 Y127.722 E.4165
G1 X117.11 Y127.722 E.01474
G1 X127.722 Y117.11 E.43734
G1 X127.722 Y116.604 E.01474
G1 X116.604 Y127.722 E.45818
G1 X116.098 Y127.722 E.01474
G1 X127.722 Y116.098 E.47902
G1 X127.722 Y115.592 E.01474
G1 X115.592 Y127.722 E.49986
G1 X115.087 Y127.722 E.01474
G1 X127.722 Y115.087 E.5207
G1 X127.722 Y114.581 E.01474
G1 X114.581 Y127.722 E.54154
G1 X114.075 Y127.722 E.01474
G1 X127.722 Y114.075 E.56238
G1 X127.722 Y113.57 E.01474
G1 X113.57 Y127.722 E.58322
G1 X113.064 Y127.722 E.01474
G1 X127.722 Y113.064 E.60406
G1 X127.722 Y112.558 E.01474
G1 X112.558 Y127.722 E.6249
G1 X112.053 Y127.722 E.01474
G1 X127.722 Y112.053 E.64574
G1 X127.722 Y111.547 E.01474
G1 X111.547 Y127.722 E.66658
G1 X111.041 Y127.722 E.01474
G1 X127.722 Y111.041 E.68742
G1 X127.722 Y110.535 E.01474
G1 X110.535 Y127.722 E.70826
G1 X110.03 Y127.722 E.01474
G1 X127.722 Y110.03 E.7291
G1 X127.722 Y109.524 E.01474
G1 X109.524 Y127.722 E.74994
G1 X109.018 Y127.722 E.01474
G1 X127.722 Y109.018 E.77078
G1 X127.722 Y108.513 E.01474
G1 X108.513 Y127.722 E.79162
G1 X108.007 Y127.722 E.01474
G1 X127.722 Y108.007 E.81246
G1 X127.722 Y107.501 E.01474
G1 X107.501 Y127.722 E.8333
G1 X106.995 Y127.722 E.01474
G1 X127.722 Y106.995 E.85414
G1 X127.722 Y106.49 E.01474
M73 P16 R21
G1 X106.49 Y127.722 E.87498
G1 X105.984 Y127.722 E.01474
G1 X127.722 Y105.984 E.89582
G1 X127.722 Y105.478 E.01474
G1 X105.478 Y127.722 E.91666
G1 X104.973 Y127.722 E.01474
G1 X127.722 Y104.973 E.9375
G1 X127.722 Y104.467 E.01474
G1 X104.467 Y127.722 E.95834
G1 X103.961 Y127.722 E.01474
G1 X127.722 Y103.961 E.97918
G1 X127.722 Y103.455 E.01474
G1 X103.455 Y127.722 E1.00002
G1 X102.95 Y127.722 E.01474
G1 X127.722 Y102.95 E1.02086
G1 X127.722 Y102.444 E.01474
G1 X102.444 Y127.722 E1.0417
G1 X101.938 Y127.722 E.01474
G1 X127.722 Y101.938 E1.06254
G1 X127.722 Y101.433 E.01474
G1 X101.433 Y127.722 E1.08338
G1 X100.927 Y127.722 E.01474
G1 X127.722 Y100.927 E1.10422
G1 X127.722 Y100.421 E.01474
G1 X100.421 Y127.722 E1.12506
G1 X99.915 Y127.722 E.01474
G1 X127.722 Y99.915 E1.1459
G1 X127.722 Y99.41 E.01474
G1 X99.41 Y127.722 E1.16674
G1 X98.904 Y127.722 E.01474
G1 X127.722 Y98.904 E1.18758
G1 X127.722 Y98.398 E.01474
M73 P17 R21
G1 X98.398 Y127.722 E1.20842
G1 X97.893 Y127.722 E.01474
G1 X127.722 Y97.893 E1.22926
G1 X127.722 Y97.387 E.01474
G1 X97.387 Y127.722 E1.2501
G1 X96.881 Y127.722 E.01474
G1 X127.722 Y96.881 E1.27094
G1 X127.722 Y96.375 E.01474
G1 X96.375 Y127.722 E1.29178
G1 X95.87 Y127.722 E.01474
G1 X127.722 Y95.87 E1.31262
G1 X127.722 Y95.364 E.01474
G1 X95.364 Y127.722 E1.33346
G1 X94.858 Y127.722 E.01474
G1 X127.722 Y94.858 E1.3543
G1 X127.722 Y94.353 E.01474
G1 X94.353 Y127.722 E1.37514
G1 X93.847 Y127.722 E.01474
G1 X127.722 Y93.847 E1.39598
G1 X127.722 Y93.341 E.01474
G1 X93.341 Y127.722 E1.41682
G1 X92.835 Y127.722 E.01474
G1 X127.722 Y92.835 E1.43766
G1 X127.722 Y92.33 E.01474
G1 X92.33 Y127.722 E1.4585
G1 X92.278 Y127.722 E.00152
M73 P18 R20
G1 X92.278 Y127.269 E.01322
G1 X127.269 Y92.278 E1.44196
G1 X126.763 Y92.278 E.01474
G1 X92.278 Y126.763 E1.42112
G1 X92.278 Y126.257 E.01474
G1 X126.257 Y92.278 E1.40028
G1 X125.752 Y92.278 E.01474
G1 X92.278 Y125.752 E1.37944
G1 X92.278 Y125.246 E.01474
G1 X125.246 Y92.278 E1.3586
G1 X124.74 Y92.278 E.01474
G1 X92.278 Y124.74 E1.33776
G1 X92.278 Y124.235 E.01474
G1 X124.235 Y92.278 E1.31692
G1 X123.729 Y92.278 E.01474
G1 X92.278 Y123.729 E1.29608
G1 X92.278 Y123.223 E.01474
G1 X123.223 Y92.278 E1.27524
G1 X122.717 Y92.278 E.01474
G1 X92.278 Y122.717 E1.2544
G1 X92.278 Y122.212 E.01474
G1 X122.212 Y92.278 E1.23356
G1 X121.706 Y92.278 E.01474
G1 X92.278 Y121.706 E1.21272
G1 X92.278 Y121.2 E.01474
M73 P19 R20
G1 X121.2 Y92.278 E1.19188
G1 X120.695 Y92.278 E.01474
G1 X92.278 Y120.695 E1.17104
G1 X92.278 Y120.189 E.01474
G1 X120.189 Y92.278 E1.1502
G1 X119.683 Y92.278 E.01474
G1 X92.278 Y119.683 E1.12936
G1 X92.278 Y119.177 E.01474
G1 X119.177 Y92.278 E1.10852
G1 X118.672 Y92.278 E.01474
G1 X92.278 Y118.672 E1.08768
G1 X92.278 Y118.166 E.01474
G1 X118.166 Y92.278 E1.06684
G1 X117.66 Y92.278 E.01474
G1 X92.278 Y117.66 E1.046
G1 X92.278 Y117.155 E.01474
G1 X117.155 Y92.278 E1.02516
G1 X116.649 Y92.278 E.01474
G1 X92.278 Y116.649 E1.00432
G1 X92.278 Y116.143 E.01474
G1 X116.143 Y92.278 E.98348
G1 X115.637 Y92.278 E.01474
G1 X92.278 Y115.637 E.96264
G1 X92.278 Y115.132 E.01474
G1 X115.132 Y92.278 E.9418
G1 X114.626 Y92.278 E.01474
G1 X92.278 Y114.626 E.92096
G1 X92.278 Y114.12 E.01474
G1 X114.12 Y92.278 E.90012
G1 X113.615 Y92.278 E.01474
G1 X92.278 Y113.615 E.87928
G1 X92.278 Y113.109 E.01474
M73 P20 R20
G1 X113.109 Y92.278 E.85844
G1 X112.603 Y92.278 E.01474
G1 X92.278 Y112.603 E.8376
G1 X92.278 Y112.097 E.01474
