; HEADER_BLOCK_START
; generated by OrcaSlicer 1.9.0 on 2024-02-02 at 18:22:37
; total layer number: 52
; filament_density: 1.24
; filament_diameter: 1.75
; max_z_height: 10.40
; HEADER_BLOCK_END

; THUMBNAIL_BLOCK_START

;
; THUMBNAIL_BLOCK_END

; external perimeters extrusion width = 0.40mm
; perimeters extrusion width = 0.45mm
; infill extrusion width = 0.45mm
; solid infill extrusion width = 0.40mm
; top infill extrusion width = 0.40mm
; first layer extrusion width = 0.50mm

; EXECUTABLE_BLOCK_START
M73 P0 R54
M201 X500 Y500 Z500 E5000
M203 X500 Y500 Z10 E60
M204 P500 R1000 T500
M205 X8.00 Y8.00 Z0.40 E5.00 ; sets the jerk limits, mm/sec
;TYPE:Custom
G90 ; use absolute coordinates
M83 ; extruder relative mode
M140 S60 ; set final bed temp
M104 S150 ; set temporary nozzle temp to prevent oozing during homing
G4 S10 ; allow partial nozzle warmup
G28 ; home all axis
G1 Z50 F240
G1 X2 Y10 F3000
M104 S220 ; set final nozzle temp
M190 S60 ; wait for bed temp to stabilize
M109 S220 ; wait for nozzle temp to stabilize
G1 Z0.28 F240
G92 E0
G1 Y140 E10 F1500 ; prime the nozzle
G1 X2.3 F5000
G92 E0
G1 Y10 E10 F1200 ; prime the nozzle
G92 E0
G90
G21
M83 ; use relative distances for extrusion
; filament start gcode
M106 S0
;LAYER_CHANGE
;Z:0.2
;HEIGHT:0.2
;BEFORE_LAYER_CHANGE
;0.2
G92 E0

G1 E-5 F3600
;_SET_FAN_SPEED_CHANGING_LAYER
M204 S500
M73 P1 R54
G1 Z.4 F9000
G1 X73.18 Y65.029
G1 Z.4
G1 Z.2
G1 E5 F2400
;TYPE:Skirt
;WIDTH:0.5
G1 F3000
G1 X73.885 Y64.237 E.0395
G1 X74.475 Y63.806 E.02721
G1 X75.171 Y63.475 E.02872
G1 X76.185 Y63.261 E.03859
G1 X94.474 Y63.25 E.68122
G1 X94.982 Y63.29 E.01898
G1 X95.728 Y63.475 E.0286
G1 X96.784 Y64.049 E.04479
G1 X97.31 Y64.522 E.02635
G1 X97.738 Y65.053 E.02539
G1 X98.285 Y66.091 E.04369
G1 X122.46 Y130.489 E2.56203
G1 X122.906 Y133.5 E.11338
G1 X122.906 Y151.5 E.67043
G1 X122.46 Y154.511 E.11338
G1 X122.223 Y155.242 E.02863
G1 X121.016 Y157.611 E.09903
G1 X120.564 Y158.233 E.02863
G1 X118.683 Y160.114 E.09908
G1 X118.061 Y160.566 E.02863
G1 X115.692 Y161.773 E.09903
G1 X114.961 Y162.011 E.02863
G1 X112.334 Y162.427 E.09906
G1 X111.565 Y162.427 E.02863
G1 X108.938 Y162.011 E.09906
G1 X108.207 Y161.773 E.02863
G1 X105.838 Y160.566 E.09903
G1 X105.216 Y160.114 E.02863
G1 X103.335 Y158.233 E.09908
G1 X102.883 Y157.611 E.02863
G1 X101.645 Y155.179 E.10164
G1 X72.835 Y94.403 E2.50517
G1 X72.393 Y93.147 E.04957
G1 X72.27 Y92.003 E.04286
G1 X72.27 Y67.997 E.89413
G1 X72.464 Y66.563 E.0539
G1 X72.823 Y65.622 E.0375
G1 X73.156 Y65.061 E.02431
; printing object Surprising Rottis-Bombul.stl id:0 copy 0
G1 E-3.8 F3600
;WIPE_START
G1 F3000
G1 X73.818 Y64.312 E-1.2
;WIPE_END
G1 Z.6 F9000
G1 X76.309 Y66.935 Z.6
G1 Z.2
G1 E5 F2400
;TYPE:Inner wall
;WIDTH:0.499999
G1 F900
G1 X76.508 Y66.869 E.00782
G1 X94.047 Y66.871 E.65326
G1 X94.539 Y66.901 E.01834
G1 X94.758 Y67.142 E.01213
G1 X94.949 Y67.57 E.01745
G1 X95.008 Y68.141 E.02138
G1 X95.008 Y91.859 E.88342
G1 X94.963 Y92.316 E.01711
G1 X94.814 Y92.782 E.01823
G1 X94.595 Y93.064 E.01329
G1 X94.39 Y93.131 E.00802
G1 X76.687 Y93.131 E.6594
G1 X76.36 Y93.099 E.01222
G1 X76.142 Y92.859 E.01209
G1 X75.991 Y92.537 E.01323
G1 X75.891 Y91.935 E.02276
G1 X75.891 Y68.141 E.88622
G1 X75.936 Y67.683 E.01716
G1 X76.084 Y67.218 E.01817
G1 X76.283 Y66.964 E.012
G1 X76.196 Y66.469 F9000
G1 F900
G1 X76.484 Y66.411 E.01093
G1 X94.216 Y66.414 E.66045
G1 X94.639 Y66.449 E.01582
M73 P1 R53
G1 X94.883 Y66.582 E.01034
G1 X95.218 Y66.995 E.0198
G1 X95.335 Y67.299 E.01216
G1 X95.416 Y67.63 E.01267
G1 X95.465 Y68.141 E.01913
G1 X95.465 Y91.962 E.88724
G1 X95.396 Y92.541 E.02172
G1 X95.218 Y93.005 E.01854
G1 X94.95 Y93.364 E.01669
G1 X94.702 Y93.531 E.01111
G1 X94.415 Y93.589 E.01093
G1 X76.687 Y93.589 E.6603
G1 X76.26 Y93.551 E.01596
G1 X76.015 Y93.418 E.01036
G1 X75.68 Y93.005 E.01981
G1 X75.503 Y92.541 E.01851
G1 X75.434 Y91.962 E.02173
G1 X75.434 Y68.038 E.89105
G1 X75.503 Y67.459 E.02173
G1 X75.68 Y66.995 E.01851
G1 X75.949 Y66.636 E.01669
G1 X76.163 Y66.491 E.00963
G1 X76.015 Y66.047 F9000
;TYPE:Outer wall
G1 F900
G1 X76.46 Y65.954 E.01694
G1 X94.461 Y65.957 E.67047
G1 X94.884 Y66.047 E.01613
G1 X95.282 Y66.317 E.0179
G1 X95.622 Y66.772 E.02116
G1 X95.843 Y67.349 E.02302
G1 X95.922 Y68.141 E.02963
G1 X95.922 Y91.989 E.88825
G1 X95.843 Y92.651 E.02484
G1 X95.622 Y93.228 E.02302
G1 X95.282 Y93.683 E.02116
G1 X94.884 Y93.953 E.0179
G1 X94.439 Y94.046 E.01694
G1 X76.46 Y94.046 E.66966
G1 X76.015 Y93.953 E.01694
G1 X75.617 Y93.683 E.0179
G1 X75.276 Y93.228 E.02117
G1 X75.056 Y92.651 E.02301
G1 X74.977 Y91.989 E.02484
G1 X74.977 Y68.011 E.89307
G1 X75.056 Y67.349 E.02485
G1 X75.276 Y66.772 E.02301
G1 X75.617 Y66.317 E.02117
G1 X75.982 Y66.07 E.01641
G1 E-3.5 F3600
;WIPE_START
G1 F900
G1 X76.46 Y65.954 E-.73787
G1 X76.968 Y65.954 E-.76213
;WIPE_END
G1 Z.6 F9000
G1 X94.862 Y68.336 Z.6
G1 Z.2
G1 E5 F2400
;TYPE:Bottom surface
;WIDTH:0.501413
G1 F1200
G1 X93.749 Y67.223 E.05881
G1 X93.1 Y67.223 E.02423
G1 X94.656 Y68.779 E.08221
G1 X94.656 Y69.427 E.02423
G1 X92.452 Y67.223 E.11647
G1 X91.803 Y67.222 E.02423
G1 X94.656 Y70.075 E.15074
G1 X94.656 Y70.724 E.02423
G1 X91.155 Y67.222 E.185
G1 X90.506 Y67.222 E.02423
G1 X94.656 Y71.372 E.21926
G1 X94.656 Y72.021 E.02423
G1 X89.858 Y67.222 E.25353
G1 X89.209 Y67.222 E.02423
G1 X94.656 Y72.669 E.28779
G1 X94.656 Y73.317 E.02423
G1 X88.561 Y67.222 E.32206
G1 X87.912 Y67.222 E.02423
M73 P2 R53
G1 X94.656 Y73.966 E.35632
G1 X94.656 Y74.614 E.02423
G1 X87.264 Y67.222 E.39059
G1 X86.615 Y67.222 E.02423
G1 X94.656 Y75.263 E.42485
G1 X94.656 Y75.911 E.02423
G1 X85.967 Y67.222 E.45911
G1 X85.318 Y67.222 E.02423
G1 X94.656 Y76.559 E.49338
G1 X94.656 Y77.208 E.02423
G1 X84.67 Y67.222 E.52764
G1 X84.021 Y67.221 E.02423
G1 X94.656 Y77.856 E.56191
G1 X94.656 Y78.505 E.02423
G1 X83.373 Y67.221 E.59617
G1 X82.724 Y67.221 E.02423
G1 X94.656 Y79.153 E.63044
G1 X94.656 Y79.801 E.02423
G1 X82.076 Y67.221 E.6647
G1 X81.427 Y67.221 E.02423
G1 X94.656 Y80.45 E.69897
G1 X94.656 Y81.098 E.02423
G1 X80.779 Y67.221 E.73323
G1 X80.13 Y67.221 E.02423
G1 X94.656 Y81.747 E.76749
G1 X94.656 Y82.395 E.02423
G1 X79.482 Y67.221 E.80176
G1 X78.833 Y67.221 E.02423
G1 X94.656 Y83.043 E.83602
G1 X94.656 Y83.692 E.02423
G1 X78.185 Y67.221 E.87029
G1 X77.536 Y67.221 E.02423
G1 X94.656 Y84.34 E.90455
G1 X94.656 Y84.989 E.02423
G1 X76.888 Y67.221 E.93882
G1 X76.514 Y67.232 E.01398
G1 X76.401 Y67.382 E.00701
G1 X94.656 Y85.637 E.96455
G1 X94.656 Y86.286 E.02423
G1 X76.266 Y67.895 E.97169
G1 X76.243 Y68.086 E.0072
G1 X76.243 Y68.521 E.01623
G1 X94.656 Y86.934 E.9729
G1 X94.656 Y87.582 E.02423
G1 X76.243 Y69.169 E.9729
G1 X76.243 Y69.818 E.02423
G1 X94.656 Y88.231 E.9729
G1 X94.656 Y88.879 E.02423
G1 X76.243 Y70.466 E.9729
G1 X76.243 Y71.114 E.02423
G1 X94.656 Y89.528 E.9729
G1 X94.656 Y90.176 E.02423
G1 X76.243 Y71.763 E.9729
G1 X76.243 Y72.411 E.02423
G1 X94.656 Y90.824 E.9729
G1 X94.656 Y91.473 E.02423
G1 X76.243 Y73.06 E.9729
G1 X76.243 Y73.708 E.02423
G1 X94.634 Y92.099 E.97173
G1 X94.605 Y92.345 E.00926
G1 X94.5 Y92.614 E.01077
G1 X76.243 Y74.356 E.96468
G1 X76.243 Y75.005 E.02423
M73 P3 R53
G1 X94.018 Y92.78 E.93916
G1 X93.369 Y92.78 E.02423
G1 X76.243 Y75.653 E.9049
G1 X76.243 Y76.302 E.02423
G1 X92.721 Y92.78 E.87064
G1 X92.072 Y92.78 E.02423
G1 X76.243 Y76.95 E.83638
G1 X76.243 Y77.598 E.02423
G1 X91.424 Y92.78 E.80212
G1 X90.775 Y92.78 E.02423
G1 X76.243 Y78.247 E.76786
G1 X76.243 Y78.895 E.02423
G1 X90.127 Y92.78 E.7336
G1 X89.479 Y92.78 E.02423
G1 X76.243 Y79.544 E.69934
G1 X76.243 Y80.192 E.02423
G1 X88.83 Y92.78 E.66508
G1 X88.182 Y92.78 E.02423
G1 X76.243 Y80.84 E.63082
G1 X76.243 Y81.489 E.02423
G1 X87.533 Y92.78 E.59656
G1 X86.885 Y92.78 E.02423
M73 P3 R52
G1 X76.243 Y82.137 E.5623
G1 X76.243 Y82.786 E.02423
G1 X86.237 Y92.78 E.52804
G1 X85.588 Y92.78 E.02423
G1 X76.243 Y83.434 E.49378
G1 X76.243 Y84.083 E.02423
G1 X84.94 Y92.78 E.45952
G1 X84.291 Y92.78 E.02423
G1 X76.243 Y84.731 E.42526
G1 X76.243 Y85.379 E.02423
G1 X83.643 Y92.78 E.391
G1 X82.995 Y92.78 E.02423
G1 X76.243 Y86.028 E.35674
G1 X76.243 Y86.676 E.02423
G1 X82.346 Y92.78 E.32248
G1 X81.698 Y92.78 E.02423
G1 X76.243 Y87.325 E.28822
G1 X76.243 Y87.973 E.02423
G1 X81.049 Y92.78 E.25396
G1 X80.401 Y92.78 E.02423
G1 X76.243 Y88.621 E.2197
G1 X76.243 Y89.27 E.02423
G1 X79.753 Y92.78 E.18544
G1 X79.104 Y92.78 E.02423
G1 X76.243 Y89.918 E.15118
G1 X76.243 Y90.567 E.02423
G1 X78.456 Y92.78 E.11693
G1 X77.807 Y92.78 E.02423
G1 X76.243 Y91.215 E.08267
G1 X76.243 Y91.863 E.02423
G1 X77.365 Y92.985 E.05927
G1 E-3.5 F3600
;WIPE_START
G1 F1200
G1 X76.658 Y92.278 E-1.5
;WIPE_END
G1 Z.6 F9000
G1 X111.949 Y140.821 Z.6
G1 Z.2
G1 E5 F2400
;TYPE:Inner wall
;WIDTH:0.499999
G1 F900
G1 X109.687 Y140.463 E.08533
G1 X107.646 Y139.423 E.08529
G1 X106.026 Y137.803 E.08534
G1 X104.986 Y135.763 E.08529
G1 X104.628 Y133.5 E.08533
G1 X104.986 Y131.237 E.08533
G1 X106.026 Y129.197 E.08529
G1 X107.646 Y127.577 E.08534
G1 X109.687 Y126.537 E.08529
G1 X111.949 Y126.179 E.08533
G1 X114.212 Y126.537 E.08533
G1 X116.253 Y127.577 E.08529
G1 X117.873 Y129.197 E.08534
G1 X118.912 Y131.237 E.08529
G1 X119.271 Y133.5 E.08533
G1 X119.092 Y134.631 E.04265
G1 X118.912 Y135.763 E.04268
G1 X117.873 Y137.803 E.08529
G1 X116.253 Y139.423 E.08534
G1 X114.212 Y140.463 E.08529
G1 X111.989 Y140.815 E.08384
G1 X111.949 Y141.284 F9000
G1 F900
G1 X109.544 Y140.903 E.09072
G1 X107.374 Y139.798 E.09069
G1 X105.652 Y138.075 E.09074
G1 X104.546 Y135.906 E.09069
G1 X104.165 Y133.5 E.09072
G1 X104.546 Y131.094 E.09072
G1 X105.652 Y128.925 E.09069
G1 X107.374 Y127.202 E.09074
G1 X109.544 Y126.097 E.09069
G1 X111.949 Y125.716 E.09072
G1 X114.355 Y126.097 E.09072
G1 X116.525 Y127.202 E.09069
G1 X118.247 Y128.925 E.09074
G1 X119.353 Y131.094 E.09069
G1 X119.734 Y133.5 E.09072
G1 X119.543 Y134.702 E.04535
G1 X119.353 Y135.906 E.04538
G1 X118.247 Y138.075 E.09069
G1 X116.525 Y139.798 E.09074
G1 X114.355 Y140.903 E.09069
G1 X111.989 Y141.278 E.08923
G1 X111.949 Y141.747 F9000
;TYPE:Outer wall
G1 F900
G1 X109.401 Y141.343 E.09612
G1 X107.102 Y140.172 E.09608
G1 X105.277 Y138.347 E.09613
G1 X104.106 Y136.049 E.09608
G1 X103.703 Y133.5 E.09612
G1 X104.106 Y130.951 E.09612
G1 X105.277 Y128.653 E.09608
G1 X107.102 Y126.828 E.09613
G1 X109.401 Y125.657 E.09608
G1 X111.949 Y125.253 E.09612
G1 X114.498 Y125.657 E.09612
G1 X116.797 Y126.828 E.09608
G1 X118.622 Y128.653 E.09613
G1 X119.793 Y130.951 E.09608
G1 X120.196 Y133.5 E.09612
G1 X119.995 Y134.774 E.04804
G1 X119.793 Y136.049 E.04807
G1 X118.622 Y138.347 E.09608
G1 X116.797 Y140.172 E.09613
G1 X114.498 Y141.343 E.09608
G1 X111.989 Y141.741 E.09463
G1 E-3.5 F3600
;WIPE_START
G1 F900
G1 X111 Y141.589 E-1.5
;WIPE_END
G1 Z.6 F9000
G1 X118.056 Y129.879 Z.6
G1 Z.2
G1 E5 F2400
;TYPE:Bottom surface
;WIDTH:0.501495
G1 F1200
G1 X116.041 Y127.864 E.10651
G1 X114.719 Y127.19 E.05545
G1 X118.259 Y130.731 E.18711
G1 X118.574 Y131.347 E.02586
G1 X118.639 Y131.759 E.01556
G1 X113.691 Y126.811 E.26147
G1 X112.92 Y126.689 E.02915
G1 X118.761 Y132.529 E.30864
G1 X118.883 Y133.3 E.02915
G1 X112.15 Y126.567 E.35581
G1 X111.949 Y126.535 E.00758
M73 P4 R52
G1 X111.535 Y126.601 E.01567
G1 X118.849 Y133.914 E.3865
G1 X118.76 Y134.474 E.02118
G1 X110.975 Y126.689 E.4114
G1 X110.415 Y126.778 E.02118
G1 X118.671 Y135.034 E.4363
G1 X118.583 Y135.594 E.02118
G1 X109.856 Y126.867 E.46121
G1 X109.797 Y126.876 E.00223
G1 X109.412 Y127.072 E.01612
G1 X118.378 Y136.037 E.47379
G1 X118.159 Y136.467 E.01802
G1 X108.983 Y127.291 E.48493
G1 X108.553 Y127.51 E.01802
G1 X117.94 Y136.896 E.49606
G1 X117.721 Y137.326 E.01802
G1 X108.123 Y127.728 E.5072
G1 X107.856 Y127.865 E.01123
G1 X107.733 Y127.987 E.00646
G1 X117.462 Y137.716 E.51414
G1 X117.138 Y138.04 E.01714
G1 X107.409 Y128.311 E.51414
G1 X107.085 Y128.636 E.01714
G1 X116.814 Y138.364 E.51414
G1 X116.49 Y138.689 E.01714
G1 X106.761 Y128.96 E.51414
G1 X106.436 Y129.284 E.01714
G1 X116.165 Y139.013 E.51414
G1 X116.043 Y139.135 E.00645
G1 X115.775 Y139.272 E.01123
G1 X106.178 Y129.674 E.5072
G1 X105.959 Y130.104 E.01802
G1 X115.346 Y139.49 E.49606
G1 X114.916 Y139.709 E.01802
G1 X105.74 Y130.533 E.48492
G1 X105.521 Y130.963 E.01802
G1 X114.486 Y139.928 E.47379
G1 X114.102 Y140.124 E.01612
G1 X114.043 Y140.133 E.00223
G1 X105.316 Y131.406 E.4612
G1 X105.227 Y131.966 E.02118
G1 X113.483 Y140.222 E.4363
G1 X112.923 Y140.311 E.02118
G1 X105.139 Y132.526 E.4114
G1 X105.05 Y133.086 E.02118
G1 X112.364 Y140.399 E.3865
G1 X111.949 Y140.465 E.01567
G1 X111.749 Y140.433 E.00759
G1 X105.016 Y133.701 E.3558
G1 X105.138 Y134.471 E.02915
G1 X110.978 Y140.311 E.30863
G1 X110.208 Y140.189 E.02915
G1 X105.26 Y135.242 E.26146
G1 X105.325 Y135.653 E.01555
G1 X105.64 Y136.27 E.02587
G1 X109.18 Y139.81 E.18709
G1 X107.858 Y139.136 E.05545
G1 X105.843 Y137.121 E.10649
G1 E-3.5 F3600
;WIPE_START
G1 F1200
G1 X106.55 Y137.828 E-1.5
;WIPE_END
G1 Z.6 F9000
G1 X111.949 Y144.179 Z.6
G1 Z.2
G1 E5 F2400
;TYPE:Inner wall
;WIDTH:0.499999
G1 F900
G1 X114.212 Y144.537 E.08533
G1 X116.253 Y145.577 E.08529
G1 X117.873 Y147.197 E.08534
G1 X118.912 Y149.237 E.08529
G1 X119.271 Y151.5 E.08533
G1 X119.092 Y152.631 E.04265
G1 X118.912 Y153.763 E.04268
G1 X117.873 Y155.803 E.08529
G1 X116.253 Y157.423 E.08534
G1 X114.212 Y158.463 E.08529
G1 X111.949 Y158.821 E.08533
G1 X109.687 Y158.463 E.08533
G1 X107.646 Y157.423 E.08529
G1 X106.026 Y155.803 E.08534
G1 X104.986 Y153.763 E.08529
G1 X104.628 Y151.5 E.08533
G1 X104.986 Y149.237 E.08533
G1 X106.026 Y147.197 E.08529
G1 X107.646 Y145.577 E.08534
G1 X109.687 Y144.537 E.08529
G1 X111.91 Y144.185 E.08384
G1 X111.949 Y143.716 F9000
G1 F900
G1 X114.355 Y144.097 E.09072
G1 X116.525 Y145.202 E.09069
G1 X118.247 Y146.925 E.09074
G1 X119.353 Y149.094 E.09069
G1 X119.734 Y151.5 E.09072
G1 X119.543 Y152.702 E.04535
G1 X119.353 Y153.906 E.04538
G1 X118.247 Y156.075 E.09069
G1 X116.525 Y157.798 E.09074
G1 X114.355 Y158.903 E.09069
G1 X111.949 Y159.284 E.09072
G1 X109.544 Y158.903 E.09072
G1 X107.374 Y157.798 E.09069
G1 X105.652 Y156.075 E.09074
G1 X104.546 Y153.906 E.09069
G1 X104.165 Y151.5 E.09072
G1 X104.546 Y149.094 E.09072
G1 X105.652 Y146.925 E.09069
G1 X107.374 Y145.202 E.09074
G1 X109.544 Y144.097 E.09069
G1 X111.91 Y143.722 E.08923
G1 X111.949 Y143.253 F9000
;TYPE:Outer wall
G1 F900
G1 X114.498 Y143.657 E.09612
G1 X116.797 Y144.828 E.09608
G1 X118.622 Y146.653 E.09613
G1 X119.793 Y148.951 E.09608
G1 X120.196 Y151.5 E.09612
G1 X119.995 Y152.774 E.04804
G1 X119.793 Y154.049 E.04807
G1 X118.622 Y156.347 E.09608
G1 X116.797 Y158.172 E.09613
G1 X114.498 Y159.343 E.09608
G1 X111.949 Y159.747 E.09612
G1 X109.401 Y159.343 E.09612
G1 X107.102 Y158.172 E.09608
G1 X105.277 Y156.347 E.09613
G1 X104.106 Y154.049 E.09608
G1 X103.703 Y151.5 E.09612
G1 X104.106 Y148.951 E.09612
G1 X105.277 Y146.653 E.09608
G1 X107.102 Y144.828 E.09613
G1 X109.401 Y143.657 E.09608
G1 X111.91 Y143.259 E.09463
G1 E-3.5 F3600
;WIPE_START
G1 F900
G1 X112.898 Y143.411 E-1.5
;WIPE_END
G1 Z.6 F9000
G1 X115.57 Y145.393 Z.6
G1 Z.2
G1 E5 F2400
;TYPE:Bottom surface
;WIDTH:0.501495
G1 F1200
G1 X117.586 Y147.409 E.10651
G1 X118.259 Y148.731 E.05545
G1 X114.719 Y145.19 E.18711
G1 X114.102 Y144.876 E.02586
G1 X113.691 Y144.811 E.01556
G1 X118.639 Y149.759 E.26147
G1 X118.761 Y150.529 E.02915
G1 X112.92 Y144.689 E.30864
G1 X112.15 Y144.567 E.02915
G1 X118.883 Y151.3 E.35581
G1 X118.914 Y151.5 E.00758
G1 X118.849 Y151.914 E.01567
G1 X111.535 Y144.601 E.3865
G1 X110.975 Y144.689 E.02118
G1 X118.76 Y152.474 E.4114
G1 X118.671 Y153.034 E.02118
G1 X110.415 Y144.778 E.4363
G1 X109.856 Y144.867 E.02118
G1 X118.583 Y153.594 E.46121
G1 X118.574 Y153.653 E.00223
G1 X118.378 Y154.037 E.01612
G1 X109.412 Y145.072 E.47379
G1 X108.983 Y145.291 E.01802
G1 X118.159 Y154.467 E.48493
G1 X117.94 Y154.896 E.01802
M73 P5 R52
G1 X108.553 Y145.51 E.49606
G1 X108.123 Y145.728 E.01802
G1 X117.721 Y155.326 E.5072
G1 X117.585 Y155.594 E.01123
G1 X117.462 Y155.716 E.00646
G1 X107.733 Y145.987 E.51414
G1 X107.409 Y146.311 E.01714
G1 X117.138 Y156.04 E.51414
G1 X116.814 Y156.364 E.01714
G1 X107.085 Y146.636 E.51414
G1 X106.761 Y146.96 E.01714
